svg/u0036.svg

<svg viewBox="0 0 128 128" xmlns="http://www.w3.org/2000/svg">
  <linearGradient id="SVGID_1_" gradientUnits="userSpaceOnUse" x1="64.02" x2="64.02" y1="101.1193" y2="24.5493">
    <stop offset="0.4852" stop-color="#504F4F"/>
    <stop offset="1" stop-color="#757575"/>
  </linearGradient>
  <path d="M77.69,34.74c0,0.85-0.69,1.53-1.53,1.53c-6.97,0.1-12.54,2.02-16.71,5.74 C56.22,44.9,54,48.72,52.8,53.48c-0.35,1.39,1.18,2.48,2.36,1.66c3.43-2.4,7.49-3.59,12.19-3.59c6.6,0,11.8,2.32,15.61,6.97 s5.72,10.65,5.72,17.99c0,7.59-2.23,13.73-6.69,18.43s-10.31,7.05-17.56,7.05c-7.45,0-13.49-2.75-18.12-8.25s-6.95-12.71-6.95-21.63 v-4.25c0-13.09,3.19-23.34,9.56-30.76C54.98,30.05,62.78,26.36,75.4,26c1.12-0.03,2.06,0.84,2.09,1.96 C77.49,27.96,77.69,34.74,77.69,34.74z M60.51,62.06c-0.09,0.02-0.19,0.05-0.27,0.08c-1.01,0.39-1.95,0.84-2.81,1.36 c-3.58,2.17-5.64,6.17-5.64,10.35c0,5.54,1.16,9.94,3.49,13.2c2.32,3.26,5.33,4.9,9.02,4.9s6.61-1.38,8.77-4.15 c2.15-2.77,3.23-6.41,3.23-10.92s-1.09-8.18-3.28-11.02C70.12,62.09,65.95,60.83,60.51,62.06z" fill="url(#SVGID_1_)"/>
</svg>

<svg viewBox="0 0 128 128" xmlns="http://www.w3.org/2000/svg">
  <defs>
    <linearGradient id="SVGID_1_" gradientUnits="userSpaceOnUse" x1="64.02" x2="64.02" y1="101.1193" y2="24.5493">
      <stop offset="0.4852" stop-color="#504F4F"/>
      <stop offset="1" stop-color="#757575"/>
    </linearGradient>
  </defs>
  <path d="M77.69,34.74 C77.69,35.59 77,36.27 76.16,36.27 C69.19,36.37 63.62,38.29 59.45,42.01 C56.22,44.9 54,48.72 52.8,53.48 C52.45,54.87 53.98,55.96 55.16,55.14 C58.59,52.74 62.65,51.55 67.35,51.55 C73.95,51.55 79.15,53.87 82.96,58.52 C86.77,63.17 88.68,69.17 88.68,76.51 C88.68,84.1 86.45,90.24 81.99,94.94 C77.53,99.64 71.68,101.99 64.43,101.99 C56.98,101.99 50.94,99.24 46.31,93.74 C41.68,88.24 39.36,81.03 39.36,72.11 L39.36,67.86 C39.36,54.77 42.55,44.52 48.92,37.1 C54.98,30.05 62.78,26.36 75.4,26 C76.52,25.97 77.46,26.84 77.49,27.96 C77.49,27.96 77.69,34.74 77.69,34.74 Z M60.51,62.06 C60.42,62.08 60.32,62.11 60.24,62.14 C59.23,62.53 58.29,62.98 57.43,63.5 C53.85,65.67 51.79,69.67 51.79,73.85 C51.79,79.39 52.95,83.79 55.28,87.05 C57.6,90.31 60.61,91.95 64.3,91.95 C67.99,91.95 70.91,90.57 73.07,87.8 C75.22,85.03 76.3,81.39 76.3,76.88 C76.3,72.37 75.21,68.7 73.02,65.86 C70.12,62.09 65.95,60.83 60.51,62.06 Z" fill="url(#SVGID_1_)"/>
</svg>
